transfer.svg

<svg fill="currentColor" viewBox="0 0 24 24"><path d="M8 4a2 2 0 0 0-2 2v4h2V6h8v3h-2.5l3.5 3.5L20.5 9H18V6a2 2 0 0 0-2-2zm-5 8v2h8v-2zm0 3v2h8v-2zm10 0v2h8v-2zM3 18v2h8v-2zm10 0v2h8v-2z"/></svg>

<svg  viewBox="0 0 24 24" fill="currentColor"><path  d="M8 4A2 2 0 0 0 6 6V10H8V6H16V9H13.5L17 12.5L20.5 9H18V6A2 2 0 0 0 16 4H8M3 12V14H11V12H3M3 15V17H11V15H3M13 15V17H21V15H13M3 18V20H11V18H3M13 18V20H21V18H13Z"/></svg>
